X: 18
T:Sailor's Hornpipe, The
R:Hornpipe
C:Trad. Shanty
O:Britain
M:4/4
L:1/8
Q:1/4=120
K:G
gf |: "G"g2 G2 G2 dc | "G"Bdgf gbag |"A7"a2 A2 A2 AG|"D"FA d2 d2 ef |
"C"gfed "G"edcB | "C"cBAG "D"GFED | "C"EGFA "D"GBAc |1 "G"B2 "C"G2 "G"G2 gf :|2 "G"B2 "C"G2 "G"G2 dc ||:
"G"Bdgd Bdgd | "C"e2 c2 c2 ed | "A7"^ceae ^ceae | "D"f2 d2 d2 B2 |
"C"cBcd "Am"edcB | "C"cBAG "D"GFED | "C"EGFA "D"GBAc |1 "G"B2 "C"G2 "G"G2 dc :|2 "G"B2 "C"G2 "G"G4 ||
